X:131 
T:Miss Cassidy (reel) 
S:L.Donnelly < J.McMahon
F:file ID: cre.4/131miss_ca
B:CRE4.099 (InÃÂÃÂÃÂÃÂ­on UÃÂÃÂÃÂÃÂ­ Chasaide)
L:1/8
Q:180
M:4/4
R:reel
K:G
G2GA GDEF|GBdg egdB|G2GA GDEG|AGBG EDEF|
GFGA GDEF|GBdg egdB|G2GA GDEG|ABAG EDEF ||
GBdg egdB|GBdB AGAB|GBdg egdB|GBAG EDEF|
GBdg egdB|GBdB A2Bd|e2dB c2B2|ABAG EDEF |\
"final"G8|]

%%%

